X: 100159
M: C|
L: 1/16
K: Bb
uF2 !segno!|\
f3B edcB fB3 e3g | f3B edcB {AB}c3B AF3 |\
f3B edcB fB3 d3f | eg3 df3 {AB}c3B AF3 |
f3B edcB fB3 e3g | f3B edcB ABcB A2F2 |\
f3B edcB fB3 df3 | eg3 db3 {d}c3B "_Segue Reel."AF3 "^D.C."|]


